X: 41960
T: Wallop Away The Wattle, O!
R: polka
M: 2/4
K: Gmajor
AB/c/|:d2 d/c/B/A/|GD GA|B2 Bd|A2 AB/c/|
d2 d/c/B/A/|GD GA|B2 AB/A/|G2 G2:|
|:ga bg|eg/e/ d2|ga bg|eg/e/ d2|
Bc dg|B/A/B/c/ dg|B2 AB/A/|G2 G2:|

